svg/text_search_variant.svg

<svg xmlns="http://www.w3.org/2000/svg" viewBox="0 0 24 24"><path d="M9 6v2H2V6zm0 5v2H2v-2zm9 5v2H2v-2zm1.31-4.5c.44-.68.69-1.5.69-2.39 0-2.5-2-4.5-4.5-4.5s-4.5 2-4.5 4.5 2 4.5 4.5 4.5c.87 0 1.69-.25 2.38-.68L21 16l1.39-1.39zm-3.81.11c-1.38 0-2.5-1.11-2.5-2.5s1.12-2.5 2.5-2.5a2.5 2.5 0 0 1 0 5"/></svg>

<svg xmlns="http://www.w3.org/2000/svg" id="mdi-text-search-variant" viewBox="0 0 24 24"><path d="M9 6V8H2V6H9M9 11V13H2V11H9M18 16V18H2V16H18M19.31 11.5C19.75 10.82 20 10 20 9.11C20 6.61 18 4.61 15.5 4.61S11 6.61 11 9.11 13 13.61 15.5 13.61C16.37 13.61 17.19 13.36 17.88 12.93L21 16L22.39 14.61L19.31 11.5M15.5 11.61C14.12 11.61 13 10.5 13 9.11S14.12 6.61 15.5 6.61 18 7.73 18 9.11 16.88 11.61 15.5 11.61Z" /></svg>
